X: 1
T: the Swansea Hornpipe #1
O: Kerr's v.2
S: Kerr "Merry Melodies" v.2 #353 (1880s)
R: hornpipe, reel
Z: 2009 John Chambers <jc:trillian.mit.edu>
S: printed MS of unknown origin
M: C|
L: 1/8
K: G
|: "G"G2g2 gdBG | "C"c2e2 e2g2 | "G"d2dB  "C"edcB | "Am"ABcA "D7"GFED |
|  "G"G2g2 gdBG | "C"c2e2 e2g2 | "G"d2dB "D7"ecAF |  "G"G2B2     G4  :|
|: "G"B2BG Bdd2 | "C"e2ec egg2 | "G"d2dB  "C"edcB | "Am"ABcA "D7"GFED |
|  "G"B2BG Bdd2 | "C"e2ec egg2 | "G"d2dB "D7"ecAF |  "G"G2B2     G4  :|
